X:1
T:Title
%%score { ( 1 4 5 ) | ( 2 3 ) }
L:1/8
M:6/8
K:Bb
V:1 treble nm="Grand Piano"
V:4 treble 
V:5 treble 
V:2 bass 
V:3 bass 
V:1
 z3 z2[Q:1/4=87] F | [DF]=EF BAG | [DF]3 D2 F | .[EF]2 G F2 E | [B,D]3- [B,D]2 F | [DF]=EF BAG | %6
 F3 z2 c | [Fd]cB AGA | [DB]6 |[M:1/8] [DF] |[M:3/4] [Fd]4 z2 | [Ec]6 | c4 z2 | [DB]6 | [Fd]4 z2 | %15
 [GB]2 [GB][GB] AG[Q:1/4=86][Q:1/4=84] | %16
 z2 z .F3[Q:1/4=83][Q:1/4=82][Q:1/4=81][Q:1/4=79][Q:1/4=78][Q:1/4=77][Q:1/4=75][Q:1/4=74][Q:1/4=73][Q:1/4=72][Q:1/4=70][Q:1/4=69][Q:1/4=68] | %17
[M:5/8] [B,DF]-[B,DF]- [B,DF]3[Q:1/4=67] |] %18
V:2
 z3 z2 D | z _D=D D[K:treble]FE | z3 B,2 D | z[K:treble] AE D2 C | z3 z2 D | z _D=D[K:treble] DFE | %6
 z3[K:treble] B2 E | z ED E2 E | B,,6 |[M:1/8] [B,,B,] |[M:3/4] [B,,B,]B,, .B,,2 G[B,,B,] | %11
 [F,A,]F, F, F,2 [F,A,E] | E-[F,E-] [F,E]2 F[F,A,E] | [B,,B,]B,, B,, B,,2 [B,,B,] | %14
 [B,,B,]B,, B,,B,, [C,A,][D,B,] | [E,B,]2 .[E,B,]2 F[E,B,E] | [F,B,D][F,A,C] [F,B,D][CE] B,F, | %17
[M:5/8] B,,-B,,- B,,3 |] %18
V:3
 x6 | B,,6[K:treble] | B,,6 | F,,6[K:treble] | B,,6 | B,,6[K:treble] | B,,6[K:treble] | F,,6 | x6 | %9
[M:1/8] x |[M:3/4] z2 z .B,,3 | x6 | .[F,A,]2 z .F,3 | x6 | x6 | z2 z .[E,B,]3 | z2 z .F,3 | %17
[M:5/8] x5 |] %18
V:4
 x6 | x6 | x6 | x6 | x6 | x6 | D6 | x6 | x6 |[M:1/8] x |[M:3/4] z B, .B,2 e[Fd] | z A, A, A,2 F | %12
 z A, .A,2 dc | z B, B, B,2 [DF] | z B, B,B, [Fc][FB] | x6 | FF .F2 D[A,CF] |[M:5/8] x5 |] %18
V:5
 x6 | x6 | x6 | x6 | x6 | x6 | x6 | x6 | x6 |[M:1/8] x |[M:3/4] z2 z .B,3 | x6 | z2 z .A,3 | x6 | %14
 x6 | x6 | x6 |[M:5/8] x5 |] %18

